X: 1
T: Gavotte de l'Aven
R: gavotte
S: Handout at 2014 NEFFA
Z: 2015 John Chambers <jc:trillian.mit.edu>
M: 2/4
L: 1/16
K: Am
c2 |\
"Am"cBA2 B2c2 | "G"B4 "F"A4 | "C"A2E2 E2DE | "Dm"F2GF "E"E2c2 |\
"Am"cBA2 B2c2 | "G"B4 "F"A4 | "C"E2FE "Dm"D2E2 | "Am"A6 :|
|: "G"G2 |\
"C"E3C E2A2 | "Em"G3E C2D2 | "F"EFED CB,CD | "G"EFED C2D2 |\
"C"E3C E2A2 | "Em"G3E C2D2 | "Am"E2C2 "G"D2B,2 | "F"C6 :|
